dist/svg/u1F52F.svg

<?xml version="1.0" encoding="UTF-8"?><svg id="a" xmlns="http://www.w3.org/2000/svg" viewBox="0 0 40 40"><g><rect x="3.5" y="3.5" width="33" height="33" rx="8" ry="8" fill="#a26de7"/><g><path d="M27.881,20l3.454-5.745c.197-.328-.039-.745-.422-.745h-6.935l-3.557-5.917c-.191-.318-.652-.318-.843,0l-3.558,5.917h-6.935c-.383,0-.619,.418-.422,.745l3.454,5.745-3.454,5.745c-.197,.328,.039,.745,.422,.745h6.935l3.558,5.918c.191,.318,.652,.318,.843,0l3.558-5.918h6.934c.383,0,.619-.418,.422-.745l-3.454-5.745Zm.423-4.523l-1.571,2.613-1.571-2.613h3.142Zm-2.719,4.523l-2.719,4.523h-5.733l-2.719-4.523,2.719-4.523h5.733l2.719,4.523Zm-5.585-9.291l1.683,2.8h-3.367l1.683-2.8Zm-8.305,4.768h3.142l-1.571,2.613-1.571-2.613Zm0,9.045l1.571-2.613,1.571,2.613h-3.142Zm8.305,4.769l-1.684-2.801h3.368l-1.684,2.801Zm6.733-7.382l1.571,2.613h-3.142l1.571-2.613Z" fill="#fbfbfb"/><path d="M20,22.208c1.155,0,2.095-.94,2.095-2.096s-.94-2.095-2.095-2.095-2.095,.94-2.095,2.095,.94,2.096,2.095,2.096Zm0-2.222c.07,0,.127,.057,.127,.127,0,.14-.254,.14-.254,0,0-.07,.057-.127,.127-.127Z" fill="#fbfbfb"/></g></g><rect width="40" height="40" fill="none"/></svg>

<svg id="Layer_1" data-name="Layer 1" xmlns="http://www.w3.org/2000/svg" viewBox="0 0 40 40"><defs><style>.cls-1{fill:#a26de7;}.cls-2{fill:#fbfbfb;}.cls-3{fill:none;}</style></defs><rect class="cls-1" x="3.5" y="3.5" width="33" height="33" rx="8"/><path class="cls-2" d="M27.881,20l3.454-5.745a.492.492,0,0,0-.421-.746H23.979L20.422,7.592a.492.492,0,0,0-.843,0l-3.558,5.917H9.086a.492.492,0,0,0-.421.746L12.119,20,8.665,25.745a.491.491,0,0,0,.421.745h6.935l3.558,5.918a.492.492,0,0,0,.843,0L23.98,26.49h6.934a.491.491,0,0,0,.421-.745Zm.423-4.523L26.733,18.09l-1.571-2.613ZM25.585,20l-2.718,4.523H17.133L14.415,20l2.719-4.523h5.732ZM20,10.709l1.683,2.8H18.317Zm-8.3,4.768h3.142l-1.571,2.614Zm0,9.046,1.571-2.613,1.571,2.613ZM20,29.291l-1.684-2.8h3.368Zm6.733-7.381L28.3,24.523H25.163Z"/><path class="cls-2" d="M20,22.208a2.1,2.1,0,1,0-2.095-2.1A2.1,2.1,0,0,0,20,22.208Zm0-2.222a.126.126,0,0,1,.127.126c0,.141-.254.141-.254,0A.126.126,0,0,1,20,19.986Z"/><rect class="cls-3" width="40" height="40"/></svg>
